src/assets/images/gradient-arrow-narrow-down.svg

<svg fill="none" height="18" viewBox="0 0 12 18" width="12" xmlns="http://www.w3.org/2000/svg" xmlns:xlink="http://www.w3.org/1999/xlink"><linearGradient id="a" gradientUnits="userSpaceOnUse" x1="6.66378" x2="4.99989" y1=".686201" y2="17.8829"><stop offset=".15" stop-color="#2aabee"/><stop offset="1" stop-color="#0ccfcf"/></linearGradient><path clip-rule="evenodd" d="m7.4067 14.291 2.47449-2.4794h.01081c.4322-.4331 1.1129-.4331 1.5343 0 .4322.4222.4322 1.1043 0 1.5374l-4.32204 4.3308c-.24816.2552-.59894.3561-.93069.3029-.28916-.0415-.54236-.1987-.71089-.423l-4.21379-4.2223c-.1945-.2057-.313356-.4872-.313356-.7687l-.011885.0108c0-.2923.118861-.5738.313351-.7687.4214-.433 1.11293-.433 1.53434-.0108h.0108l2.46352 2.4685v-12.5154c0-.6063.48623-1.08269 1.08052-1.08269.60509 0 1.08052.47639 1.08052 1.08269z" fill="url(#a)" fill-rule="evenodd"/></svg>

<svg width="12" height="18" viewBox="0 0 12 18" fill="none" xmlns="http://www.w3.org/2000/svg">
<path fill-rule="evenodd" clip-rule="evenodd" d="M7.4067 14.291L9.88119 11.8116H9.892C10.3242 11.3785 11.0049 11.3785 11.4263 11.8116C11.8585 12.2338 11.8585 12.9159 11.4263 13.349L7.10426 17.6798C6.8561 17.935 6.50532 18.0359 6.17357 17.9827C5.88441 17.9412 5.63121 17.784 5.46268 17.5597L1.24889 13.3374C1.05439 13.1317 0.935534 12.8502 0.935534 12.5687L0.923649 12.5795C0.923649 12.2872 1.04251 12.0057 1.237 11.8108C1.6584 11.3778 2.34993 11.3778 2.77134 11.8H2.78214L5.24566 14.2685L5.24566 1.7531C5.24566 1.1468 5.73189 0.67041 6.32618 0.67041C6.93127 0.67041 7.4067 1.1468 7.4067 1.7531L7.4067 14.291Z" fill="url(#paint0_linear_331_8435)"/>
<defs>
<linearGradient id="paint0_linear_331_8435" x1="6.66378" y1="0.686201" x2="4.99989" y2="17.8829" gradientUnits="userSpaceOnUse">
<stop offset="0.15" stop-color="#2AABEE"/>
<stop offset="1" stop-color="#0CCFCF"/>
</linearGradient>
</defs>
</svg>
